X:0905
T:Miss Campbell's Jig.
M:6/8
L:1/8
Q:3/8=120
I: || ||
Z:Jack Campin * www.campin.me.uk * 2009
K:G
e|dcB cBA|BAG F2D|Eed dcB|cAA A2e|dcB cBA|BAG F2D|EFG A/B/cA|BGG G2:|
e|dBG dBG|ecA ecA|dBG dBG|EAA A2e|dBG dBG|ecA def|gfg def   |gGG G2:|
<end>
<start>
